packages/icons/src/emoji/svg/sneakers.svg

<svg width="120" height="120" viewBox="0 0 120 120" fill="none" xmlns="http://www.w3.org/2000/svg">
<g clip-path="url(#clip0_212_693)">
<path d="M78.084 35.6907C83.0715 34.3501 91.4528 27.947 96.9465 27.3376C98.9246 27.122 101.981 27.2626 103.893 27.8251C108 29.0251 110.437 32.4845 111.947 36.4876C113.137 39.6282 115.134 44.747 115.462 53.3251C115.481 53.9251 115.818 54.9845 115.359 55.3688C114.984 55.6782 114.459 55.697 113.972 55.697C111.74 55.6876 108 55.3126 105.768 55.3032C104.503 55.3032 103.115 55.247 102.187 54.3938C101.109 53.3907 101.09 51.722 101.156 50.2407C99.4309 47.7563 95.9434 47.5032 92.934 47.297C89.9246 47.0907 86.3528 46.2563 85.3215 43.4157C84.984 42.497 84.9934 41.4938 84.9934 40.5095C85.0121 37.2657 78.0653 38.9345 78.084 35.6907Z" fill="#E0E0E0"/>
<path d="M81.8154 41.4093C87.4311 38.5312 92.6248 33.2062 98.6623 32.9905C99.4311 32.9624 100.219 32.953 100.959 33.1687C102.478 33.6187 103.65 35.0905 103.772 36.6937C103.94 38.8593 102.384 40.753 100.706 42.0843C97.4061 44.7093 93.3186 46.1718 89.1654 46.7062C88.0873 46.8468 86.9154 46.903 85.9967 46.3124C85.1811 45.7874 84.7123 44.8593 84.2904 43.978C83.2029 41.6999 82.9123 43.6874 81.8154 41.4093Z" fill="#757575"/>
<path d="M5.42818 83.5781C0.975057 83.2594 0.412558 95.4281 6.59068 100.922C11.8782 105.628 19.9501 107.138 26.6251 107.719C48.7969 109.659 71.4938 99.1969 75.6563 97.9031C79.8469 96.6 100.913 88.9031 108.638 85.1531C111.281 83.8688 116.269 81.9656 117.178 79.8656C118.2 77.5125 117.872 71.7563 117.356 67.6781C117.225 66.6281 116.963 65.5313 116.203 64.8C114.975 63.5906 112.716 64.8375 111.047 65.25C104.578 66.8438 100.631 69.1688 94.4907 71.7563C91.3032 73.1063 88.0126 74.2219 84.7407 75.3281C68.9813 80.6719 52.9782 86.0719 36.3657 86.9438C25.6219 87.525 16.0969 84.9281 5.42818 83.5781Z" fill="#78909C"/>
<path d="M54.8721 36.7689C55.819 31.1064 59.1471 25.6126 64.8565 24.9657C69.169 24.4782 83.6909 26.6532 86.6628 29.822C92.8128 36.3751 85.0315 43.0595 85.3315 44.1845C85.7346 45.722 88.0409 46.6876 90.8721 46.0032C93.394 45.4032 94.7253 44.2314 97.3409 43.4532C99.9378 42.6845 101.953 44.9439 103.153 47.3345C104.738 50.4939 107.532 51.0939 110.457 51.197C111.732 51.2439 113.86 51.1407 114.816 51.6001C115.791 52.0689 116.391 53.4282 116.672 54.4407C118.163 59.747 118.941 66.7032 115.847 71.2595C112.022 76.8939 86.419 84.6001 79.3784 87.4501C72.6753 90.1689 54.8346 96.1689 47.644 95.4095C47.119 95.3532 46.5471 95.2595 46.1815 94.8751C45.7034 94.3689 45.7596 93.5907 45.8253 92.9064C46.2846 88.2001 33.7128 68.4751 30.1315 66.8251C29.3721 66.4782 28.5565 65.8689 28.594 65.0439C28.6128 64.547 28.5096 64.0407 28.9315 63.7782C31.3221 62.297 32.1378 61.0595 33.9003 59.297C34.9315 58.2657 35.3534 56.6251 37.0596 55.0126C38.044 54.0751 40.6503 53.1657 41.4471 52.2095C42.469 51.0001 42.8815 49.9876 43.9784 48.8157C45.9753 46.6876 47.2596 46.8376 48.7128 45.3001C49.4909 44.4751 50.0721 42.6751 50.8128 41.447C51.5815 40.2095 54.4971 38.3251 54.8721 36.7689Z" fill="#0288D1"/>
<path d="M27.7968 63.3094C19.6781 68.5688 14.3812 71.0157 6.15932 79.7813C4.79994 81.2344 4.04057 84.6001 4.32182 86.5688C4.64057 88.7719 6.20619 90.6094 7.94057 91.9969C13.3499 96.3188 19.7156 97.3407 26.6249 97.8094C34.0218 98.3063 43.3781 97.6688 50.9437 96.4219C52.5093 96.1594 54.3281 94.6501 54.6562 93.3001C55.3874 90.3469 54.8718 84.3094 54.8343 81.8813C54.7781 77.8126 54.1312 75.7407 52.1906 73.3969C49.4999 70.1438 45.8156 68.5313 41.4937 66.7219C37.1812 64.9126 31.4156 61.4532 27.7968 63.3094Z" fill="#E0E0E0"/>
<path d="M53.5405 43.8469C53.8686 43.3312 54.2717 42.9187 54.7592 42.5531C55.0499 42.3375 55.3874 42.1875 55.753 42.0844C59.7842 40.9219 64.5936 42.4312 68.503 43.5375C71.0155 44.25 78.6561 46.6781 75.9655 50.7C75.2623 51.7406 73.8561 52.4344 72.6092 52.3687C70.8373 52.275 69.5436 50.9344 68.0342 50.1469C66.3374 49.2562 64.678 48.4312 62.8499 47.8125C61.3723 47.2924 59.8742 46.8326 58.3592 46.4344C57.0374 46.0969 55.8748 46.1531 54.5342 46.0031C54.1967 45.9656 53.9061 46.05 53.5874 45.8719C52.8936 45.4781 53.203 44.3906 53.5405 43.8469ZM46.3124 50.5031C47.353 49.2094 48.8061 48.9187 50.3342 48.8531C50.878 48.825 51.4405 48.8344 51.9936 48.8344C55.3311 48.8344 58.6498 49.6031 61.6592 51.0656C63.6655 52.0406 65.8686 53.0437 67.3217 54.7969C68.1655 55.8187 69.028 56.8125 68.6248 58.2375C67.3311 62.775 61.5936 57.6094 59.7467 56.6437C58.1436 55.8094 56.1842 54.7969 54.4686 54.2812C53.5967 54.0187 52.678 53.9531 51.8249 53.7187C50.1655 53.2594 48.5811 53.1562 46.9124 52.9031C45.4686 52.6875 45.5811 51.4219 46.3124 50.5031ZM38.8311 57.6187C39.5905 56.325 41.3624 55.9781 42.7311 55.8187H42.8061C45.6467 55.5281 48.8717 56.4469 51.5811 57.2437C52.528 57.525 53.6155 57.7969 54.5249 58.1906C56.4842 59.0344 58.6686 60.1969 60.1311 61.7625C62.3436 64.1344 59.728 66 57.0186 65.7375C56.5499 65.6906 56.1936 65.4937 55.753 65.3625C55.0967 65.1562 54.403 65.1094 53.7374 64.9312C51.7874 64.3875 49.9874 63.5625 48.2342 62.5969C47.3342 62.1 46.4061 61.7906 45.4499 61.4062C44.3061 60.9469 43.1905 60.6094 42.028 60.1875C41.1186 59.8594 39.628 59.9062 38.8592 59.2781C38.3905 58.8937 38.5405 58.1062 38.8311 57.6187Z" fill="white"/>
</g>
<defs>
<clipPath id="clip0_212_693">
<rect width="120" height="120" fill="white"/>
</clipPath>
</defs>
</svg>

<svg xmlns="http://www.w3.org/2000/svg" fill="none" aria-hidden="true" data-slot="icon" viewBox="0 0 120 120"><g clip-path="url(#a)"><path fill="#E0E0E0" d="M78.084 35.69c4.987-1.34 13.369-7.743 18.862-8.352 1.979-.216 5.035-.075 6.947.487 4.107 1.2 6.544 4.66 8.054 8.663 1.19 3.14 3.187 8.259 3.515 16.837.019.6.356 1.66-.103 2.044-.375.31-.9.328-1.387.328-2.232-.01-5.972-.384-8.204-.394-1.265 0-2.653-.056-3.581-.91-1.078-1.002-1.097-2.671-1.031-4.152-1.725-2.485-5.213-2.738-8.222-2.944-3.01-.206-6.581-1.04-7.612-3.881-.338-.919-.329-1.922-.329-2.906.02-3.244-6.928-1.575-6.909-4.82"/><path fill="#757575" d="M81.815 41.41c5.616-2.879 10.81-8.204 16.847-8.42.77-.028 1.557-.037 2.297.179 1.519.45 2.691 1.922 2.813 3.525.168 2.165-1.388 4.059-3.066 5.39-3.3 2.625-7.387 4.088-11.54 4.622-1.079.14-2.25.197-3.17-.394-.815-.525-1.284-1.453-1.706-2.334-1.087-2.278-1.378-.29-2.475-2.569"/><path fill="#78909C" d="M5.428 83.578C.975 83.26.413 95.428 6.591 100.922c5.287 4.706 13.36 6.216 20.034 6.797 22.172 1.94 44.869-8.522 49.031-9.816 4.19-1.303 25.257-9 32.982-12.75 2.643-1.284 7.631-3.187 8.54-5.287 1.022-2.353.694-8.11.178-12.188-.131-1.05-.393-2.147-1.153-2.878-1.228-1.21-3.487.038-5.156.45-6.469 1.594-10.416 3.919-16.556 6.506-3.188 1.35-6.478 2.466-9.75 3.572-15.76 5.344-31.763 10.744-48.375 11.616-10.744.581-20.27-2.016-30.938-3.366"/><path fill="#0288D1" d="M54.872 36.769c.947-5.663 4.275-11.156 9.984-11.803 4.313-.488 18.835 1.687 21.807 4.856 6.15 6.553-1.632 13.238-1.331 14.363.403 1.537 2.709 2.503 5.54 1.818 2.522-.6 3.853-1.772 6.469-2.55 2.597-.769 4.612 1.49 5.812 3.881 1.585 3.16 4.379 3.76 7.304 3.863 1.275.047 3.403-.056 4.359.403.975.469 1.575 1.828 1.856 2.84 1.491 5.307 2.269 12.263-.825 16.82-3.825 5.634-29.428 13.34-36.469 16.19-6.703 2.719-24.543 8.719-31.734 7.96-.525-.057-1.097-.15-1.462-.535-.479-.506-.422-1.284-.357-1.969.46-4.706-12.112-24.43-15.694-26.08-.759-.348-1.575-.957-1.537-1.782.019-.497-.084-1.003.337-1.266 2.391-1.481 3.207-2.718 4.97-4.481 1.03-1.031 1.452-2.672 3.159-4.284.984-.938 3.59-1.847 4.387-2.803 1.022-1.21 1.435-2.222 2.531-3.394 1.997-2.128 3.282-1.978 4.735-3.516.778-.825 1.36-2.625 2.1-3.853.768-1.238 3.684-3.122 4.06-4.678"/><path fill="#E0E0E0" d="M27.797 63.31c-8.119 5.258-13.417 7.705-21.638 16.47-1.36 1.453-2.118 4.82-1.837 6.788.319 2.203 1.884 4.04 3.619 5.428 5.409 4.322 11.775 5.344 18.684 5.812 7.397.497 16.753-.14 24.319-1.387 1.565-.263 3.384-1.772 3.712-3.122.731-2.953.216-8.99.178-11.419-.056-4.068-.703-6.14-2.643-8.484-2.691-3.253-6.375-4.866-10.697-6.675-4.313-1.81-10.078-5.269-13.697-3.413"/><path fill="#fff" d="M53.54 43.847a4.9 4.9 0 0 1 1.22-1.294 3 3 0 0 1 .993-.469c4.031-1.162 8.84.347 12.75 1.453 2.513.713 10.153 3.141 7.463 7.163-.704 1.04-2.11 1.734-3.357 1.669-1.772-.094-3.065-1.435-4.575-2.222-1.697-.89-3.356-1.716-5.184-2.334a58 58 0 0 0-4.49-1.379c-1.323-.337-2.485-.28-3.826-.43-.337-.038-.628.046-.947-.132-.693-.394-.384-1.481-.047-2.025m-7.228 6.656c1.041-1.294 2.494-1.584 4.022-1.65.544-.028 1.106-.019 1.66-.019 3.337 0 6.656.77 9.665 2.232 2.007.975 4.21 1.978 5.663 3.73.843 1.023 1.706 2.017 1.303 3.441-1.294 4.538-7.031-.628-8.878-1.593-1.603-.835-3.563-1.847-5.278-2.363-.872-.262-1.791-.328-2.644-.562-1.66-.46-3.244-.563-4.913-.816-1.443-.215-1.33-1.481-.6-2.4m-7.48 7.116c.758-1.294 2.53-1.64 3.9-1.8h.074c2.84-.29 6.066.628 8.775 1.425.947.281 2.034.553 2.944.947 1.96.843 4.144 2.006 5.606 3.572 2.213 2.371-.403 4.237-3.112 3.974-.47-.046-.825-.243-1.266-.374-.656-.207-1.35-.254-2.016-.432-1.95-.543-3.75-1.368-5.503-2.334-.9-.497-1.828-.806-2.784-1.19-1.144-.46-2.26-.798-3.422-1.22-.91-.328-2.4-.28-3.169-.909-.468-.384-.319-1.172-.028-1.66"/></g><defs><clipPath id="a"><path fill="#fff" d="M0 0h120v120H0z"/></clipPath></defs></svg>
